X:999
T:Catch
T:(17th Century)
O:england
C:anon.
%http://www.musicaviva.com/abc/catch.abc
M:3/4
L:1/4
K:Ddor
"1"ddd|B>cd|efe|d2^c|
"2"d2 z|d>cB|Aag|f e/d/e|
d>e f/g/|a2^g|a2 z|a2g|
f>ed|^cde|fe/d/e|d2 z|
a>gf|ed^c|d^c/B/c|Hd/e/ f/g/a|
d>e f/d/|e/c/de|fe2|^f3|]


